www/assets/icons/newspaper.svg

<svg xmlns="http://www.w3.org/2000/svg" width="24" height="24" viewBox="0 0 24 24" fill='currentColor'><path d="m22 3-1.67 1.67L18.67 3 17 4.67 15.33 3l-1.66 1.67L12 3l-1.67 1.67L8.67 3 7 4.67 5.33 3 3.67 4.67 2 3v16c0 1.1.9 2 2 2h16c1.1 0 2-.9 2-2zM11 19H4v-6h7zm9 0h-7v-2h7zm0-4h-7v-2h7zm0-4H4V8h16z"/></svg>

<svg width="24" height="24" viewBox="0 0 24 24" xmlns="http://www.w3.org/2000/svg" fill='currentColor'><path d="M22 3L20.33 4.67L18.67 3L17 4.67L15.33 3L13.67 4.67L12 3L10.33 4.67L8.67 3L7 4.67L5.33 3L3.67 4.67L2 3V19C2 20.1 2.9 21 4 21H20C21.1 21 22 20.1 22 19V3ZM11 19H4V13H11V19ZM20 19H13V17H20V19ZM20 15H13V13H20V15ZM20 11H4V8H20V11Z"/></svg>
